src/img/feat-2.svg

<svg width="33" height="33" viewBox="0 0 33 33" fill="none" xmlns="http://www.w3.org/2000/svg">
<rect y="16" width="17" height="17" rx="5" fill="#3ED9B0"/>
<path d="M25.3057 8.45715C25.3057 3.79384 21.5118 0 16.8485 0C12.1852 0 8.39144 3.79384 8.39144 8.45715C8.39144 11.312 9.81359 13.8408 11.9864 15.373C11.8912 15.4182 11.7977 15.4669 11.7074 15.5215L7.12384 18.2857C6.79197 18.0067 6.36425 17.838 5.89774 17.838H3.08823C2.03629 17.838 1.18042 18.6939 1.18042 19.7459V31.0922C1.18042 32.1442 2.03629 33 3.08823 33H5.89774C6.38469 33 6.82941 32.8164 7.16689 32.515C7.7277 32.8333 8.35824 32.9998 9.01386 32.9998H19.7557C21.0255 32.9998 22.0586 31.9668 22.0586 30.697C22.0586 30.408 22.0054 30.1255 21.9004 29.8572C21.7925 29.5819 21.6358 29.3342 21.4342 29.1204C22.1907 28.7425 22.7116 27.9602 22.7116 27.0586C22.7116 26.4665 22.4903 25.9092 22.0871 25.4814C22.8438 25.1035 23.3647 24.321 23.3647 23.4191C23.3647 22.517 22.8432 21.7343 22.0859 21.3567C22.4738 20.9444 22.7116 20.3896 22.7116 19.7802C22.7116 19.1653 22.4721 18.5872 22.037 18.152C21.6015 17.7173 21.0232 17.4779 20.4087 17.4779H19.3325V16.5418C22.7874 15.4782 25.3057 12.2563 25.3057 8.45715V8.45715ZM9.35823 8.45715C9.35823 4.32693 12.7184 0.966797 16.8485 0.966797C20.9787 0.966797 24.3389 4.32693 24.3389 8.45715C24.3389 12.5874 20.9787 15.9475 16.8485 15.9475C12.7184 15.9475 9.35823 12.5873 9.35823 8.45715ZM13.1474 17.4779C12.8805 17.4779 12.664 17.6944 12.664 17.9613C12.664 18.2283 12.8805 18.4447 13.1474 18.4447H20.4088C20.7655 18.4447 21.1011 18.5838 21.3537 18.8359C21.606 19.0882 21.7449 19.4235 21.7449 19.7802C21.7449 20.5169 21.1455 21.1163 20.4088 21.1163C20.1418 21.1163 19.9254 21.3327 19.9254 21.5997C19.9254 21.8666 20.1418 22.0831 20.4088 22.0831H21.0619C21.7986 22.0831 22.3979 22.6824 22.3979 23.4191C22.3979 24.1561 21.7986 24.7557 21.0619 24.7557H20.4088C20.1418 24.7557 19.9254 24.9722 19.9254 25.2391C19.9254 25.5061 20.1418 25.7225 20.4088 25.7225C20.7659 25.7225 21.1015 25.8615 21.3541 26.114C21.6061 26.3656 21.7449 26.7011 21.7449 27.0586C21.7449 27.7953 21.1455 28.3947 20.4088 28.3947H19.7558C19.4888 28.3947 19.2724 28.6111 19.2724 28.8781C19.2724 29.1451 19.4888 29.3615 19.7558 29.3615C20.1124 29.3615 20.4481 29.5005 20.7013 29.7532C20.8321 29.8836 20.9327 30.0372 21.0001 30.2096C21.061 30.3651 21.0919 30.5291 21.0919 30.697C21.0919 31.4337 20.4926 32.033 19.7559 32.033H9.01392C8.55044 32.033 8.1043 31.9207 7.70359 31.7063C7.7694 31.5135 7.80562 31.307 7.80562 31.0922V28.4851C7.80562 28.2181 7.58919 28.0017 7.32222 28.0017C7.05526 28.0017 6.83882 28.2181 6.83882 28.4851V31.0922C6.83882 31.6111 6.41666 32.0332 5.89781 32.0332H3.0883C2.56945 32.0332 2.14728 31.611 2.14728 31.0922V19.7459C2.14728 19.2269 2.56945 18.8048 3.0883 18.8048H5.89781C6.41666 18.8048 6.83882 19.227 6.83882 19.7459V26.5515C6.83882 26.8184 7.05526 27.0349 7.32222 27.0349C7.58919 27.0349 7.80562 26.8184 7.80562 26.5515V19.7459C7.80562 19.5105 7.7625 19.2851 7.68425 19.0768L12.2068 16.3493C12.4818 16.1834 12.7917 16.0783 13.1098 16.0415C13.4963 16.2328 13.8993 16.3957 14.3162 16.5269V17.478H13.1474V17.4779ZM18.3657 17.4778H15.2829V16.7684C15.7905 16.8638 16.3136 16.9143 16.8485 16.9143C17.3663 16.9143 17.8734 16.8673 18.3657 16.7777V17.4778Z" fill="#333333"/>
<path d="M4.40508 3.48329L5.96569 4.24699C6.18399 4.35385 6.4166 4.40464 6.64631 4.40464C7.18759 4.40464 7.71327 4.1226 7.99957 3.62669L8.07969 3.48799C8.07969 3.48799 8.07969 3.48799 8.07969 3.48793C8.48755 2.78152 8.27678 1.87157 7.59996 1.41634L6.15827 0.44677C5.8014 0.206747 5.35654 0.124762 4.9374 0.2217C4.51839 0.318702 4.15475 0.587987 3.93973 0.960461L3.74077 1.30509C3.52575 1.67757 3.47438 2.12713 3.59981 2.53847C3.72523 2.94981 4.01882 3.29424 4.40508 3.48329V3.48329ZM4.57801 1.78856L4.77698 1.44386C4.8598 1.30045 4.99419 1.20094 5.15551 1.16362C5.20056 1.15318 5.24581 1.14802 5.29073 1.14802C5.40656 1.14802 5.51967 1.18237 5.61874 1.24895L7.06049 2.21859C7.31727 2.39126 7.39719 2.73647 7.2425 3.00446L7.16239 3.14323C7.00764 3.41123 6.66874 3.51461 6.39076 3.37861L4.83009 2.61491C4.68133 2.54214 4.57286 2.41485 4.52452 2.25648C4.47618 2.09806 4.49519 1.9319 4.57801 1.78856V1.78856Z" fill="#333333"/>
<path d="M29.292 13.4309L27.7314 12.6672C26.9988 12.3087 26.1054 12.5811 25.6976 13.2874L25.6175 13.4261C25.6175 13.4261 25.6174 13.4262 25.6174 13.4263C25.2096 14.1327 25.4203 15.0426 26.0972 15.4979L27.5388 16.4676C27.7974 16.6415 28.1022 16.7325 28.41 16.7325C28.5269 16.7325 28.6443 16.7193 28.7597 16.6926C29.1787 16.5956 29.5424 16.3263 29.7574 15.9539L29.9564 15.6092C30.1714 15.2368 30.2228 14.7873 30.0974 14.3759C29.9719 13.9644 29.6784 13.62 29.292 13.4309V13.4309ZM29.1191 15.1257L28.9201 15.4703C28.8374 15.6138 28.7029 15.7133 28.5416 15.7506C28.3802 15.788 28.2157 15.7577 28.0784 15.6652L26.6367 14.6956C26.38 14.5229 26.2999 14.1777 26.4546 13.9097L26.5348 13.7709C26.6895 13.5029 27.0286 13.3995 27.3064 13.5355L28.867 14.2992C29.0158 14.372 29.1243 14.4994 29.1726 14.6577C29.2209 14.8161 29.2019 14.9823 29.1191 15.1257V15.1257Z" fill="#333333"/>
<path d="M2.3723 9.79478C2.66086 10.0642 3.04377 10.2139 3.43655 10.2139C3.47168 10.2139 3.50693 10.2127 3.54212 10.2103L5.27553 10.0914C6.08931 10.0356 6.72675 9.35289 6.72675 8.53723V8.37707C6.72675 7.56135 6.08931 6.87866 5.27553 6.82291L3.54212 6.704C3.11312 6.67454 2.68664 6.82607 2.3723 7.11959C2.05796 7.41311 1.87769 7.82812 1.87769 8.25822V8.65615C1.87769 9.08625 2.05796 9.50126 2.3723 9.79478ZM2.84448 8.25822C2.84448 8.09264 2.91113 7.93924 3.03217 7.82625C3.14296 7.72281 3.28438 7.66712 3.43423 7.66712C3.44809 7.66712 3.46201 7.66757 3.47599 7.66854L5.2094 7.78745C5.51813 7.80866 5.75995 8.06763 5.75995 8.37707V8.53723C5.75995 8.84667 5.51813 9.10571 5.2094 9.12685L3.47599 9.24577C3.31074 9.25705 3.15315 9.2011 3.03217 9.08812C2.91119 8.97513 2.84448 8.82167 2.84448 8.65615V8.25822Z" fill="#333333"/>
<path d="M31.325 7.11959C31.0106 6.82607 30.5844 6.67454 30.1551 6.704L28.4217 6.82291C27.608 6.87873 26.9705 7.56141 26.9705 8.37707V8.53723C26.9705 9.35289 27.608 10.0356 28.4217 10.0914L30.1551 10.2103C30.1903 10.2128 30.2255 10.2139 30.2607 10.2139C30.6535 10.2139 31.0364 10.0642 31.325 9.79472C31.6394 9.5012 31.8197 9.08618 31.8197 8.65609V8.25815C31.8196 7.82812 31.6393 7.41311 31.325 7.11959V7.11959ZM30.8528 8.65615C30.8528 8.82173 30.7861 8.97513 30.6652 9.08812C30.5441 9.20117 30.3858 9.25711 30.2213 9.24577L28.4879 9.12685C28.1791 9.10565 27.9373 8.84667 27.9373 8.53723V8.37707C27.9373 8.06756 28.1791 7.80859 28.4879 7.78745L30.2212 7.66854C30.2353 7.66757 30.2492 7.66712 30.263 7.66712C30.4128 7.66712 30.5544 7.72281 30.6651 7.82625C30.7861 7.93924 30.8527 8.09264 30.8527 8.25822V8.65615H30.8528Z" fill="#333333"/>
<path d="M5.96573 12.6673L4.40513 13.431C4.0188 13.62 3.72534 13.9644 3.59985 14.3758C3.47436 14.7872 3.52573 15.2367 3.74081 15.6092L3.93978 15.9538C4.15479 16.3263 4.51844 16.5955 4.93745 16.6926C5.05288 16.7193 5.17019 16.7324 5.28717 16.7324C5.59487 16.7324 5.89973 16.6414 6.15832 16.4675L7.60007 15.4978C8.27689 15.0425 8.48765 14.1326 8.07973 13.4262L7.99961 13.2875V13.2876C7.59182 12.5812 6.69843 12.3088 5.96573 12.6673V12.6673ZM7.06047 14.6957L5.61872 15.6654C5.4813 15.7578 5.31669 15.788 5.15549 15.7507C4.99423 15.7134 4.85978 15.6138 4.77696 15.4705L4.57799 15.1258C4.49523 14.9824 4.47622 14.8163 4.5245 14.6579C4.57283 14.4995 4.68131 14.3722 4.83007 14.2994L6.39067 13.5357C6.47349 13.4952 6.56173 13.4759 6.64887 13.4759C6.85428 13.4759 7.05364 13.5829 7.1623 13.7711V13.7711L7.24235 13.9098C7.39717 14.1777 7.31725 14.5229 7.06047 14.6957V14.6957Z" fill="#333333"/>
<path d="M25.6975 3.62669C25.9838 4.12266 26.5094 4.4047 27.0507 4.4047C27.2804 4.4047 27.513 4.35385 27.7313 4.24705L29.292 3.48335C29.6782 3.29431 29.9718 2.94993 30.0972 2.53853C30.2227 2.12713 30.1714 1.67763 29.9563 1.30522L29.7573 0.960524C29.5422 0.588049 29.1786 0.318764 28.7596 0.221762C28.3406 0.124825 27.8956 0.206809 27.5388 0.446768L26.0971 1.4164C25.4203 1.87163 25.2096 2.78158 25.6175 3.48812L25.6975 3.62669ZM26.6367 2.21865L28.0784 1.24895C28.1774 1.18237 28.2905 1.14802 28.4064 1.14802C28.4512 1.14802 28.4965 1.15317 28.5416 1.16362C28.7029 1.201 28.8374 1.30051 28.9201 1.44386L29.1191 1.78855C29.2018 1.9319 29.2209 2.09812 29.1726 2.25648C29.1242 2.41484 29.0157 2.5422 28.867 2.61497L27.3063 3.37861C27.0284 3.51461 26.6895 3.41122 26.5347 3.14323C26.5347 3.14323 26.5346 3.14316 26.5346 3.1431L26.4546 3.00453C26.2999 2.73659 26.3798 2.39138 26.6367 2.21865V2.21865Z" fill="#333333"/>
<path d="M18.1975 13.2123L20.4037 8.76184C20.5223 8.52265 20.4244 8.23262 20.1852 8.11402C19.9461 7.99549 19.6561 8.09327 19.5374 8.33245L17.331 12.7835C17.2721 12.9026 17.1528 12.9798 17.0196 12.9851L15.2522 13.0547C15.1185 13.0596 14.9943 12.992 14.9257 12.8772L12.4326 8.70712C12.3295 8.53471 12.3861 8.31048 12.5583 8.20735L13.8158 7.45583C13.9882 7.35264 14.2125 7.4091 14.3156 7.58157L15.5808 9.69757C15.6716 9.84936 15.8381 9.93979 16.0147 9.9325C16.1914 9.92554 16.3503 9.82261 16.4288 9.66412L19.0268 4.42228C19.0701 4.33501 19.1448 4.26978 19.237 4.23871C19.3294 4.20758 19.4281 4.21442 19.5155 4.25779L20.8281 4.908C20.9154 4.95131 20.9806 5.02594 21.0117 5.11818C21.0428 5.21034 21.0361 5.30915 20.9926 5.39668L20.3964 6.60002C20.2779 6.8392 20.3758 7.12924 20.615 7.24777C20.8544 7.3663 21.1444 7.26846 21.2628 7.02921L21.8589 5.82613C22.017 5.50754 22.0415 5.14647 21.9279 4.80945C21.8144 4.47255 21.5764 4.19998 21.2576 4.04175L19.945 3.39154C19.6264 3.23344 19.2654 3.20895 18.9283 3.32251C18.5914 3.43602 18.3189 3.67404 18.1608 3.99276L15.956 8.44099L15.1454 7.08535C14.7688 6.45539 13.9499 6.2492 13.3197 6.6258L12.0619 7.37752C11.4324 7.75444 11.2264 8.57338 11.6027 9.20302L14.0958 13.3732C14.3371 13.7767 14.771 14.0217 15.2375 14.0217C15.255 14.0217 15.2726 14.0213 15.2903 14.0207L17.0576 13.9511C17.5451 13.9319 17.9819 13.6486 18.1975 13.2123V13.2123Z" fill="#333333"/>
</svg>

<svg width="33" height="33" viewBox="0 0 33 33" xmlns="http://www.w3.org/2000/svg" fill="none"><rect y="16" width="17" height="17" rx="5" fill="#3ED9B0"/><path d="M25.306 8.457c0-4.663-3.794-8.457-8.457-8.457s-8.457 3.794-8.457 8.457c0 2.855 1.422 5.384 3.595 6.916l-.279.149-4.584 2.764c-.332-.279-.76-.448-1.226-.448h-2.81c-1.052 0-1.908.856-1.908 1.908v11.346c0 1.052.856 1.908 1.908 1.908h2.81c.487 0 .932-.184 1.269-.485.561.318 1.191.485 1.847.485h10.742c1.27 0 2.303-1.033 2.303-2.303 0-.289-.053-.572-.158-.84-.108-.275-.265-.523-.466-.737.756-.378 1.277-1.16 1.277-2.062 0-.592-.221-1.149-.625-1.577.757-.378 1.278-1.16 1.278-2.062 0-.902-.521-1.685-1.279-2.062.388-.412.626-.967.626-1.576 0-.615-.239-1.193-.675-1.628-.435-.435-1.014-.674-1.628-.674h-1.076v-.936c3.455-1.064 5.973-4.285 5.973-8.085zm-15.947 0c0-4.13 3.36-7.49 7.49-7.49 4.13 0 7.49 3.36 7.49 7.49 0 4.13-3.36 7.49-7.49 7.49-4.13 0-7.49-3.36-7.49-7.49zm3.789 9.021c-.267 0-.483.216-.483.483s.216.483.483.483h7.261c.357 0 .692.139.945.391.252.252.391.588.391.944 0 .737-.599 1.336-1.336 1.336-.267 0-.483.216-.483.483s.216.483.483.483h.653c.737 0 1.336.599 1.336 1.336 0 .737-.599 1.337-1.336 1.337h-.653c-.267 0-.483.216-.483.483s.216.483.483.483c.357 0 .693.139.945.392.252.252.391.587.391.945 0 .737-.599 1.336-1.336 1.336h-.653c-.267 0-.483.216-.483.483s.216.483.483.483c.357 0 .692.139.945.392.131.13.231.284.299.456.061.156.092.32.092.487 0 .737-.599 1.336-1.336 1.336h-10.742c-.463 0-.91-.112-1.31-.327.066-.193.102-.399.102-.614v-2.607c0-.267-.216-.483-.483-.483s-.483.216-.483.483v2.607c0 .519-.422.941-.941.941h-2.81c-.519 0-.941-.422-.941-.941v-11.346c0-.519.422-.941.941-.941h2.81c.519 0 .941.422.941.941v6.806c0 .267.216.483.483.483s.483-.216.483-.483v-6.806c0-.235-.043-.461-.121-.669l4.523-2.727c.275-.166.585-.271.903-.308.386.191.79.354 1.206.485v.951h-1.169zm5.218 0h-3.083v-.709c.508.095 1.031.146 1.566.146.518 0 1.025-.047 1.517-.137v.7zM4.405 3.483l1.561.764c.218.107.451.158.681.158.541 0 1.067-.282 1.353-.778l.08-.139c.408-.706.197-1.616-.48-2.072l-1.442-.97c-.357-.24-.802-.322-1.221-.225-.419.097-.783.366-.998.739l-.199.345c-.215.372-.266.822-.141 1.233.125.411.419.756.805.945zm.173-1.695l.199-.345c.083-.143.217-.243.379-.28l.135-.016c.116 0 .229.034.328.101l1.442.97c.257.173.337.518.182.786l-.08.139c-.155.268-.494.371-.772.235l-1.561-.764c-.149-.073-.257-.2-.306-.358-.048-.158-.029-.325.053-.468zM29.292 13.431l-1.561-.764c-.733-.358-1.626-.086-2.034.62l-.08.139c-.408.706-.197 1.616.48 2.072l1.442.97c.259.174.563.265.871.265.117 0 .234-.013.35-.04.419-.097.783-.366.998-.739l.199-.345c.215-.372.266-.822.141-1.233-.125-.412-.419-.756-.805-.945zm-.173 1.695l-.199.345c-.083.143-.217.243-.379.28-.161.037-.326.007-.463-.085l-1.442-.97c-.257-.173-.337-.518-.182-.786l.08-.139c.155-.268.494-.371.772-.235l1.561.764c.149.073.257.2.306.358.048.158.029.325-.053.468zM2.372 9.795c.289.269.671.419 1.064.419l.106-.004 1.733-.119c.814-.056 1.451-.739 1.451-1.554v-.16c0-.816-.637-1.498-1.451-1.554l-1.733-.119c-.429-.029-.855.122-1.17.416-.314.294-.495.709-.495 1.139v.398c0 .43.18.845.495 1.139zm.472-1.537c0-.166.067-.319.188-.432.111-.103.252-.159.402-.159l.042.001 1.733.119c.309.021.551.28.551.59v.16c0 .309-.242.568-.551.59l-1.733.119c-.165.011-.323-.045-.444-.158s-.188-.266-.188-.432v-.398zM31.325 7.12c-.314-.294-.741-.445-1.17-.416l-1.733.119c-.814.056-1.451.739-1.451 1.554v.16c0 .816.637 1.498 1.451 1.554l1.733.119.106.004c.393 0 .776-.15 1.064-.419.314-.294.495-.709.495-1.139v-.398c0-.43-.18-.845-.495-1.139zm-.472 1.537c0 .166-.067.319-.188.432-.121.113-.279.169-.444.158l-1.733-.119c-.309-.021-.551-.28-.551-.59v-.16c0-.31.242-.568.551-.59l1.733-.119.042-.001c.15 0 .291.056.402.159.121.113.188.266.188.432v.398zM5.966 12.667l-1.561.764c-.386.189-.68.533-.805.945-.125.411-.074.861.141 1.233l.199.345c.215.373.579.642.998.739.115.027.233.04.35.04.308 0 .613-.091.871-.265l1.442-.97c.677-.455.888-1.365.48-2.072l-.08-.139c-.408-.706-1.301-.979-2.034-.62zm1.095 2.028l-1.442.97c-.137.092-.302.123-.463.085-.161-.037-.296-.137-.379-.28l-.199-.345c-.083-.143-.102-.309-.053-.468.048-.158.157-.286.306-.358l1.561-.764c.083-.04.171-.06.258-.06.205 0 .405.107.513.295l.08.139c.155.268.075.613-.182.786zM25.698 3.627c.286.496.812.778 1.353.778.23 0 .462-.051.681-.158l1.561-.764c.386-.189.68-.533.805-.945.125-.411.074-.861-.141-1.233l-.199-.345c-.215-.372-.579-.642-.998-.739-.419-.097-.864-.015-1.221.225l-1.442.97c-.677.455-.888 1.365-.48 2.072l.08.139zm.939-1.408l1.442-.97c.099-.067.212-.101.328-.101l.135.016c.161.037.296.137.379.28l.199.345c.083.143.102.31.053.468-.048.158-.157.286-.306.358l-1.561.764c-.278.136-.617.033-.772-.235l-.08-.139c-.155-.268-.075-.613.182-.786zM18.198 13.212l2.206-4.45c.119-.239.021-.529-.219-.648-.239-.119-.529-.021-.648.218l-2.206 4.451c-.059.119-.178.196-.311.202l-1.767.07c-.134.005-.258-.063-.326-.178l-2.493-4.17c-.103-.172-.046-.397.126-.5l1.258-.752c.172-.103.397-.047.5.126l1.265 2.116c.091.152.257.242.434.235.177-.007.336-.11.414-.268l2.598-5.242c.043-.087.118-.152.21-.184.092-.031.191-.024.279.019l1.313.65c.087.043.152.118.184.21.031.092.024.191-.019.279l-.596 1.203c-.119.239-.021.529.219.648.239.119.529.021.648-.219l.596-1.203c.158-.319.183-.68.069-1.017-.114-.337-.352-.609-.67-.768l-1.313-.65c-.319-.158-.68-.183-1.017-.069-.337.114-.609.352-.768.67l-2.205 4.448-.811-1.356c-.377-.63-1.196-.836-1.826-.46l-1.258.752c-.63.377-.835 1.196-.459 1.826l2.493 4.17c.241.403.675.648 1.142.648l.053-.001 1.767-.07c.488-.019.924-.303 1.14-.739z" fill="#333"/></svg>
